icons/svg/shaders/h_topo_glacier.svg

<?xml version="1.0" encoding="UTF-8" standalone="no"?>
<svg
   xmlns:dc="http://purl.org/dc/elements/1.1/"
   xmlns:cc="http://creativecommons.org/ns#"
   xmlns:rdf="http://www.w3.org/1999/02/22-rdf-syntax-ns#"
   xmlns:svg="http://www.w3.org/2000/svg"
   xmlns="http://www.w3.org/2000/svg"
   xmlns:sodipodi="http://sodipodi.sourceforge.net/DTD/sodipodi-0.dtd"
   xmlns:inkscape="http://www.inkscape.org/namespaces/inkscape"
   width="32"
   height="32"
   viewBox="0 0 32 32"
   fill="none"
   version="1.1"
   id="svg57"
   sodipodi:docname="h_topo_glacier.svg"
   inkscape:version="0.92.5 (2060ec1f9f, 2020-04-08)">
  <metadata
     id="metadata61">
    <rdf:RDF>
      <cc:Work
         rdf:about="">
        <dc:format>image/svg+xml</dc:format>
        <dc:type
           rdf:resource="http://purl.org/dc/dcmitype/StillImage" />
      </cc:Work>
    </rdf:RDF>
  </metadata>
  <sodipodi:namedview
     pagecolor="#ffffff"
     bordercolor="#666666"
     borderopacity="1"
     objecttolerance="10"
     gridtolerance="10"
     guidetolerance="10"
     inkscape:pageopacity="0"
     inkscape:pageshadow="2"
     inkscape:window-width="1720"
     inkscape:window-height="1051"
     id="namedview59"
     showgrid="false"
     inkscape:zoom="7.375"
     inkscape:cx="0.6779661"
     inkscape:cy="16"
     inkscape:window-x="200"
     inkscape:window-y="0"
     inkscape:window-maximized="1"
     inkscape:current-layer="svg57" />
  <path
     style="fill:#999999"
     inkscape:connector-curvature="0"
     id="path4"
     d="m 8.21467,29.6356 h -1.012 v 1.011 h 1.012 z" />
  <path
     style="fill:#999999"
     inkscape:connector-curvature="0"
     id="path6"
     d="M 6.00361,23.7463 H 4.9896 v 1.0111 h 1.01401 z" />
  <path
     style="fill:#999999"
     inkscape:connector-curvature="0"
     id="path8"
     d="m 6.06458,12.3964 h -1.014 v 1.0109 h 1.014 z" />
  <path
     style="fill:#999999"
     inkscape:connector-curvature="0"
     id="path10"
     d="m 19.6624,28.5489 h -1.012 v 1.011 h 1.012 z" />
  <path
     style="fill:#999999"
     inkscape:connector-curvature="0"
     id="path12"
     d="M 2.22474,17.0277 H 1.21073 v 1.011 h 1.01401 z" />
  <path
     style="fill:#999999"
     inkscape:connector-curvature="0"
     id="path14"
     d="m 3.26865,28.2128 h -1.014 v 1.011 h 1.014 z" />
  <path
     style="fill:#999999"
     inkscape:connector-curvature="0"
     id="path16"
     d="m 12.3672,27.8235 h -1.014 v 1.0111 h 1.014 z" />
  <path
     style="fill:#999999"
     inkscape:connector-curvature="0"
     id="path18"
     d="M 10.7192,13.8417 H 9.70515 v 1.011 h 1.01405 z" />
  <path
     style="fill:#999999"
     inkscape:connector-curvature="0"
     id="path20"
     d="M 2.23893,9.14807 H 1.22492 v 1.01103 h 1.01401 z" />
  <path
     style="fill:#999999"
     inkscape:connector-curvature="0"
     id="path22"
     d="m 16.8946,17.4164 h -1.014 v 1.011 h 1.014 z" />
  <path
     style="fill:#999999"
     inkscape:connector-curvature="0"
     id="path24"
     d="m 20.0711,11.5913 h -1.014 v 1.011 h 1.014 z" />
  <path
     style="fill:#999999"
     inkscape:connector-curvature="0"
     id="path26"
     d="M 7.84324,2.59155 H 6.82923 v 1.01099 h 1.01401 z" />
  <path
     style="fill:#999999"
     inkscape:connector-curvature="0"
     id="path28"
     d="m 13.2349,5.95032 h -1.014 v 1.01101 h 1.014 z" />
  <path
     style="fill:#999999"
     inkscape:connector-curvature="0"
     id="path30"
     d="m 17.2124,1.00049 h -1.014 v 1.01098 h 1.014 z" />
  <path
     style="fill:#999999"
     inkscape:connector-curvature="0"
     id="path32"
     d="m 15.3562,12.6678 h -1.014 v 1.011 h 1.014 z" />
  <path
     style="fill:#999999"
     inkscape:connector-curvature="0"
     id="path34"
     d="m 24.3719,1.53088 h -1.014 v 1.01099 h 1.014 z" />
  <path
     style="fill:#999999"
     inkscape:connector-curvature="0"
     id="path36"
     d="m 24.1067,9.92773 h -1.014 v 1.01097 h 1.014 z" />
  <path
     style="fill:#999999"
     inkscape:connector-curvature="0"
     id="path38"
     d="m 28.968,8.15997 h -1.014 v 1.01099 h 1.014 z" />
  <path
     style="fill:#999999"
     inkscape:connector-curvature="0"
     id="path40"
     d="m 25.5209,23.8047 h -1.014 v 1.011 h 1.014 z" />
  <path
     style="fill:#999999"
     inkscape:connector-curvature="0"
     id="path42"
     d="m 21.897,22.2137 h -1.014 v 1.011 h 1.014 z" />
  <path
     style="fill:#999999"
     inkscape:connector-curvature="0"
     id="path44"
     d="m 28.6145,15.673 h -1.014 v 1.011 h 1.014 z" />
  <path
     style="fill:#999999"
     inkscape:connector-curvature="0"
     id="path46"
     d="m 28.1726,29.1964 h -1.0141 v 1.011 h 1.0141 z" />
  <path
     style="fill:#999999"
     inkscape:connector-curvature="0"
     id="path48"
     d="m 30.2055,0.116638 h -1.014 V 1.12766 h 1.014 z" />
  <defs
     id="defs55">
    <clipPath
       id="clip0">
      <path
         d="M0 0H32V32H0V0Z"
         fill="white"
         id="path52" />
    </clipPath>
  </defs>
</svg>

<svg width="32" height="32" viewBox="0 0 32 32" fill="none" xmlns="http://www.w3.org/2000/svg">
<g clip-path="url(#clip0)">
<path d="M32.0241 -0.0241089H7.62939e-06V32H32.0241V-0.0241089Z" fill="#E4FDFF"/>
<path d="M8.21467 29.6356H7.20267V30.6466H8.21467V29.6356Z" fill="#999999"/>
<path d="M6.00361 23.7463H4.9896V24.7574H6.00361V23.7463Z" fill="#999999"/>
<path d="M6.06458 12.3964H5.05058V13.4073H6.06458V12.3964Z" fill="#999999"/>
<path d="M19.6624 28.5489H18.6504V29.5599H19.6624V28.5489Z" fill="#999999"/>
<path d="M2.22474 17.0277H1.21073V18.0387H2.22474V17.0277Z" fill="#999999"/>
<path d="M3.26865 28.2128H2.25465V29.2238H3.26865V28.2128Z" fill="#999999"/>
<path d="M12.3672 27.8235H11.3532V28.8346H12.3672V27.8235Z" fill="#999999"/>
<path d="M10.7192 13.8417H9.70515V14.8527H10.7192V13.8417Z" fill="#999999"/>
<path d="M2.23893 9.14807H1.22492V10.1591H2.23893V9.14807Z" fill="#999999"/>
<path d="M16.8946 17.4164H15.8806V18.4274H16.8946V17.4164Z" fill="#999999"/>
<path d="M20.0711 11.5913H19.0571V12.6023H20.0711V11.5913Z" fill="#999999"/>
<path d="M7.84324 2.59155H6.82923V3.60254H7.84324V2.59155Z" fill="#999999"/>
<path d="M13.2349 5.95032H12.2209V6.96133H13.2349V5.95032Z" fill="#999999"/>
<path d="M17.2124 1.00049H16.1984V2.01147H17.2124V1.00049Z" fill="#999999"/>
<path d="M15.3562 12.6678H14.3422V13.6788H15.3562V12.6678Z" fill="#999999"/>
<path d="M24.3719 1.53088H23.3579V2.54187H24.3719V1.53088Z" fill="#999999"/>
<path d="M24.1067 9.92773H23.0927V10.9387H24.1067V9.92773Z" fill="#999999"/>
<path d="M28.968 8.15997H27.954V9.17096H28.968V8.15997Z" fill="#999999"/>
<path d="M25.5209 23.8047H24.5069V24.8157H25.5209V23.8047Z" fill="#999999"/>
<path d="M21.897 22.2137H20.883V23.2247H21.897V22.2137Z" fill="#999999"/>
<path d="M28.6145 15.673H27.6005V16.684H28.6145V15.673Z" fill="#999999"/>
<path d="M28.1726 29.1964H27.1585V30.2074H28.1726V29.1964Z" fill="#999999"/>
<path d="M30.2055 0.116638H29.1915V1.12766H30.2055V0.116638Z" fill="#999999"/>
</g>
<defs>
<clipPath id="clip0">
<path d="M0 0H32V32H0V0Z" fill="white"/>
</clipPath>
</defs>
</svg>
